Sources/FrostedUI/Resources/Icons.xcassets/speaker24.imageset/speaker-24.svg

<svg width="24" height="24" viewBox="0 0 24 24" fill="none" xmlns="http://www.w3.org/2000/svg" data-fui-icon="true">
  <path
    d="M15.75 1.125C18.8566 1.125 21.375 3.6434 21.375 6.75V17.25C21.375 20.3566 18.8566 22.875 15.75 22.875H8.25C5.1434 22.875 2.625 20.3566 2.625 17.25V6.75C2.625 3.6434 5.1434 1.125 8.25 1.125H15.75ZM8.25 2.625C5.97183 2.625 4.125 4.47183 4.125 6.75V17.25C4.125 19.5282 5.97183 21.375 8.25 21.375H15.75C18.0282 21.375 19.875 19.5282 19.875 17.25V6.75C19.875 4.47183 18.0282 2.625 15.75 2.625H8.25ZM12 9.75C14.4853 9.75 16.5 11.7647 16.5 14.25C16.5 16.7353 14.4853 18.75 12 18.75C9.51472 18.75 7.5 16.7353 7.5 14.25C7.5 11.7647 9.51472 9.75 12 9.75ZM12 11.25C10.3431 11.25 9 12.5931 9 14.25C9 15.9069 10.3431 17.25 12 17.25C13.6569 17.25 15 15.9069 15 14.25C15 12.5931 13.6569 11.25 12 11.25ZM12 5.25C12.8284 5.25 13.5 5.92157 13.5 6.75C13.5 7.57843 12.8284 8.25 12 8.25C11.1716 8.25 10.5 7.57843 10.5 6.75C10.5 5.92157 11.1716 5.25 12 5.25Z"
    fill="currentColor"
  />
</svg>

<svg xmlns="http://www.w3.org/2000/svg" width="24" height="24" fill="none" data-fui-icon="true" viewBox="0 0 24 24"><path fill="currentColor" d="M15.75 1.125a5.625 5.625 0 0 1 5.625 5.625v10.5a5.625 5.625 0 0 1-5.625 5.625h-7.5a5.625 5.625 0 0 1-5.625-5.625V6.75A5.625 5.625 0 0 1 8.25 1.125zm-7.5 1.5A4.125 4.125 0 0 0 4.125 6.75v10.5a4.125 4.125 0 0 0 4.125 4.125h7.5a4.125 4.125 0 0 0 4.125-4.125V6.75a4.125 4.125 0 0 0-4.125-4.125zM12 9.75a4.5 4.5 0 1 1 0 9 4.5 4.5 0 0 1 0-9m0 1.5a3 3 0 1 0 0 6 3 3 0 0 0 0-6m0-6a1.5 1.5 0 1 1 0 3 1.5 1.5 0 0 1 0-3"/></svg>
